X:359
T:Reel 359
M:4/4
K:Amix
L:1/8
GFGA GFEF|GEDC B,CDG|EAAG ABcB|AGED CDEF|GBAF GBAF|GFED B,DDF|EFAB cBAG| (3EFG GE B,A,A,2|Bded edcd|Bcdc BGGA|Beef e2cB|cABG EAAc|Bcdc dBcd|Bcdc BGGF|Bcdc  (3Bcd AG|EDEF G2EA|
